icons/hospital-line.svg

<svg xmlns="http://www.w3.org/2000/svg" viewBox="0 0 24 24">
    <g>
        <path fill="none" d="M0 0h24v24H0z"/>
        <path fill-rule="nonzero" d="M8 20v-6h8v6h3V4H5v16h3zm2 0h4v-4h-4v4zm11 0h2v2H1v-2h2V3a1 1 0 0 1 1-1h16a1 1 0 0 1 1 1v17zM11 8V6h2v2h2v2h-2v2h-2v-2H9V8h2z"/>
    </g>
</svg>

<svg viewBox="0 0 24 24" fill="currentColor" xmlns="http://www.w3.org/2000/svg"><path d="M8 20V14H16V20H19V4H5V20H8ZM10 20H14V16H10V20ZM21 20H23V22H1V20H3V3C3 2.44772 3.44772 2 4 2H20C20.5523 2 21 2.44772 21 3V20ZM11 8V6H13V8H15V10H13V12H11V10H9V8H11Z"/></svg>
